X: 1
T: Ashes And Embers
R: reel
M: 4/4
L: 1/8
K: Dmaj
|:A3 B ADEF|ABde fdef|gfeg fedA|ABBA BedB|
A3 B ADEF|ABde fdef|gfeg fedB|BAAG ABdB:|
|:e4 e2 de|faaf afed|bafb afed|feed egfe|
gdBf dAeA|fdAe dAcd|edcd efge|1 faaf afed:|2 faba fedB||

